assets/images/simple-illustrations/simple-illustration__approval.svg

<svg xmlns="http://www.w3.org/2000/svg" width="60" height="70" fill="none" viewBox="0 0 38 40"><path fill="#D18000" d="M13.8399 7.32497L11.4532 3.52603C11.4532 3.52603 9.89413 0.797631 7.02157 0.848355C4.14902 0.896409 2.00529 2.01767 1.03086 4.69535C0.0564363 7.37303 0.73987 9.32188 1.76235 10.4431C2.78483 11.5644 5.75616 12.2932 5.75616 12.2932L5.80421 24.3735L9.16531 27.198C9.16531 27.198 8.77554 16.53 8.82359 15.9453C8.87165 15.3607 8.97043 13.3157 8.97043 13.3157C8.97043 13.3157 9.40825 12.4401 10.6256 11.9515C11.843 11.463 24.7988 7.03131 24.7988 7.03131L21.5365 4.88756C21.5365 4.88756 19.8306 5.17856 19.2967 5.42417C18.7601 5.66711 13.8426 7.32497 13.8426 7.32497H13.8399Z"/><path fill="#FFED8F" d="M26.8817 9.35938C26.8817 9.35938 26.0781 7.27704 24.543 7.23967C23.008 7.20229 21.5851 7.93378 21.5851 7.93378L10.2977 12.0264C10.2977 12.0264 9.2379 12.6831 9.05636 13.743C8.87482 14.8028 8.98428 26.528 8.98428 26.528C8.98428 26.528 10.0068 28.573 11.5792 28.4288C13.1516 28.2847 25.7524 23.2417 25.7524 23.2417C25.7524 23.2417 26.7749 23.0228 26.8496 21.0125C26.9217 19.0022 26.887 9.35938 26.887 9.35938H26.8817Z"/><path fill="#722B03" d="M24.8469 7.1812L21 4.89062L19.2941 5.42723L7.01897 9.9096C7.01897 9.9096 5.89771 10.6891 5.89771 11.6636C5.89771 12.638 5.80161 24.3765 5.80161 24.3765L9.06393 26.7632L9.05058 13.7459C9.05058 13.7459 9.50175 12.3443 10.6203 11.9546C11.7389 11.5648 23.1384 7.37609 23.1384 7.37609C23.1384 7.37609 24.5987 7.08509 24.8443 7.1812H24.8469Z"/><path fill="#00B268" d="M25.5333 33.3111L24.6683 34.5392C24.5428 34.718 24.6176 34.953 24.8338 35.0491L29.3375 37.062C29.5378 37.1528 29.786 37.086 29.8955 36.9152L34.2123 30.1609C34.3271 29.982 34.247 29.7551 34.0361 29.6643L32.728 29.0904C32.5304 29.0023 32.2875 29.0663 32.1781 29.2319L28.9291 34.144C28.8143 34.3149 28.5633 34.3763 28.3631 34.2802L26.0939 33.183C25.899 33.0869 25.6507 33.1456 25.5333 33.3111V33.3111Z"/><path fill="#00B268" d="M21.4617 18.0134L22.2386 19.4844C22.3507 19.6979 22.284 19.9783 22.0891 20.093L18.0366 22.5064C17.855 22.6132 17.6335 22.5358 17.5347 22.3302L13.6503 14.2411C13.5462 14.0276 13.6183 13.7553 13.8078 13.6458L14.9852 12.957C15.164 12.8529 15.3803 12.9277 15.4817 13.1279L18.405 19.0118C18.5064 19.2174 18.7334 19.2895 18.9149 19.1747L20.9572 17.8585C21.1334 17.7437 21.355 17.8131 21.4617 18.0107V18.0134Z"/><path fill="#00B268" d="M35.5121 26.4414H23.4319C22.2252 26.4414 21.2455 27.2877 21.2455 28.3342V37.8703C21.2455 38.9141 22.2226 39.7631 23.4319 39.7631H35.5121C36.7188 39.7631 37.6986 38.9168 37.6986 37.8703V28.3342C37.6986 27.2904 36.7215 26.4414 35.5121 26.4414ZM34.8928 36.6769C34.8928 37.1948 34.4069 37.614 33.8089 37.614H25.1298C24.5318 37.614 24.046 37.1948 24.046 36.6769V29.5275C24.046 29.0096 24.5318 28.5905 25.1298 28.5905H33.8089C34.4069 28.5905 34.8928 29.0096 34.8928 29.5275V36.6769Z"/><path fill="#00B268" d="M22.6658 9.58578L12.1741 13.6517C11.5067 13.9106 11.0528 14.6234 11.0395 15.4324L10.898 24.2129C10.8766 25.5184 11.9739 26.4581 13.0551 26.063L23.5041 22.256C24.1822 22.0077 24.6521 21.2923 24.6681 20.4727L24.855 11.4359C24.8817 10.1117 23.7604 9.16397 22.6685 9.58578H22.6658ZM23.1063 19.7706C23.1063 20.171 22.8527 20.5261 22.479 20.6596L14.5688 23.5028C13.9467 23.727 13.2927 23.2598 13.298 22.6004L13.3647 16.049C13.3674 15.6539 13.6157 15.3042 13.9868 15.1681L21.8569 12.2661C22.479 12.0365 23.1384 12.4984 23.1357 13.1605L23.109 19.7706H23.1063Z"/><path stroke="#002140" stroke-linecap="round" stroke-linejoin="round" stroke-width="1" d="M26.8439 21.089V9.98585C26.8439 8.03966 24.9858 6.67546 23.2105 7.31618L10.7005 11.8439C9.60592 12.2417 8.87177 13.3123 8.87177 14.5136V25.6168C8.87177 27.563 10.7298 28.9272 12.5052 28.2864L25.0152 23.7587C26.1098 23.3609 26.8439 22.2904 26.8439 21.089V21.089Z"/><path stroke="#002140" stroke-linecap="round" stroke-linejoin="round" stroke-width="1" d="M9.95073 27.8696L6.1171 24.6687C5.91687 24.2789 5.80475 23.8304 5.80475 23.3472V12.244C5.80475 11.0427 6.53891 9.97212 7.63347 9.57434L20.1435 5.04659C20.6053 4.8784 21.2781 4.77428 21.9588 5.22011L25.6937 7.67888"/><path stroke="#002140" stroke-linecap="round" stroke-linejoin="round" stroke-width="1" d="M5.74796 12.2405C4.92837 12.131 4.11413 12.0456 3.25984 11.5677C1.34302 10.4918 0.651581 8.70314 0.651581 6.66084C0.651581 3.39317 3.29988 0.742188 6.57021 0.742188C11.2982 0.838296 11.6773 4.7547 13.7703 7.20012"/></svg>

<svg xmlns="http://www.w3.org/2000/svg" width="60" height="70" fill="none" viewBox="0 0 38 40"><path fill="#d18000" d="m13.84 7.325-2.387-3.799S9.894.798 7.022.848C4.149.896 2.005 2.018 1.03 4.695c-.975 2.678-.291 4.627.731 5.748s3.994 1.85 3.994 1.85l.048 12.08 3.361 2.825s-.39-10.668-.341-11.253c.048-.584.146-2.63.146-2.63s.438-.875 1.656-1.364c1.217-.488 14.173-4.92 14.173-4.92l-3.262-2.143s-1.706.29-2.24.536c-.537.243-5.454 1.901-5.454 1.901z"/><path fill="#ffed8f" d="M26.882 9.36s-.804-2.083-2.339-2.12c-1.535-.038-2.958.694-2.958.694l-11.287 4.092s-1.06.657-1.242 1.717-.072 12.785-.072 12.785 1.023 2.045 2.595 1.9c1.573-.143 14.173-5.186 14.173-5.186s1.023-.22 1.098-2.23c.072-2.01.037-11.653.037-11.653z"/><path fill="#722b03" d="M24.847 7.181 21 4.891l-1.706.536L7.02 9.91s-1.121.78-1.121 1.754-.096 12.713-.096 12.713l3.262 2.386-.013-13.017s.45-1.402 1.57-1.791c1.118-.39 12.517-4.579 12.517-4.579s1.46-.29 1.706-.195z"/><path fill="#00b268" d="m25.533 33.311-.865 1.228c-.125.179-.05.414.166.51l4.503 2.013c.2.09.449.024.558-.147l4.317-6.754c.115-.179.035-.406-.176-.497l-1.308-.574c-.198-.088-.44-.024-.55.142l-3.249 4.912c-.115.17-.366.232-.566.136l-2.27-1.097a.456.456 0 0 0-.56.128M21.462 18.013l.777 1.471c.112.214.045.494-.15.609l-4.052 2.413c-.182.107-.403.03-.502-.176l-3.885-8.089c-.104-.213-.032-.486.158-.595l1.177-.689c.179-.104.395-.03.497.17l2.923 5.885c.101.205.328.277.51.163l2.042-1.317c.176-.114.398-.045.505.153z"/><path fill="#00b268" d="M35.512 26.441h-12.08c-1.207 0-2.186.847-2.186 1.893v9.536c0 1.044.977 1.893 2.186 1.893h12.08c1.207 0 2.187-.846 2.187-1.893v-9.536c0-1.044-.977-1.893-2.187-1.893m-.62 10.236c0 .518-.485.937-1.083.937h-8.68c-.597 0-1.083-.42-1.083-.937v-7.15c0-.517.486-.937 1.084-.937h8.679c.598 0 1.084.42 1.084.938zM22.666 9.586l-10.492 4.066c-.667.259-1.121.971-1.134 1.78l-.142 8.78c-.021 1.306 1.076 2.246 2.157 1.851l10.45-3.807c.677-.248 1.147-.964 1.163-1.783l.187-9.037c.027-1.324-1.095-2.272-2.186-1.85zm.44 10.185c0 .4-.253.755-.627.889l-7.91 2.843a.95.95 0 0 1-1.271-.903l.067-6.551a.945.945 0 0 1 .622-.88l7.87-2.903a.95.95 0 0 1 1.279.895l-.027 6.61z"/><path stroke="#002140" stroke-linecap="round" stroke-linejoin="round" d="M26.844 21.089V9.986c0-1.946-1.858-3.31-3.634-2.67L10.7 11.844c-1.094.398-1.828 1.468-1.828 2.67v11.103c0 1.946 1.858 3.31 3.633 2.67l12.51-4.528c1.095-.398 1.829-1.469 1.829-2.67"/><path stroke="#002140" stroke-linecap="round" stroke-linejoin="round" d="m9.95 27.87-3.833-3.201a2.9 2.9 0 0 1-.312-1.322V12.244c0-1.201.734-2.272 1.828-2.67l12.51-4.527c.462-.169 1.135-.273 1.816.173l3.735 2.459"/><path stroke="#002140" stroke-linecap="round" stroke-linejoin="round" d="M5.748 12.24c-.82-.109-1.634-.194-2.488-.672C1.343 10.492.652 8.703.652 6.66A5.92 5.92 0 0 1 6.57.742c4.728.096 5.107 4.013 7.2 6.458"/></svg>
